X: 614
P: Longways for as many as will
M: C|
L: 1/8
K: A
|:\
c2A2 E2c2 | B4 A2G2 | F2f2 B2^d2 | e4 :|
|:\
e4   f2e2 | d3c  B2e2 | d2c2 B2A2 | GAB2 E4 |\

